mapp_logos/sainsburys_local.svg

<?xml version="1.0" encoding="UTF-8" standalone="no"?>
<svg viewBox="0 0 24 24" width="24pt" height="24pt" version="1.1" id="svg1" xmlns="http://www.w3.org/2000/svg" xmlns:svg="http://www.w3.org/2000/svg">
  <defs id="defs1">
    <clipPath id="_clipPath_E9rXdIHY3dkNHvZGWkIDJ3F3emxd4i5R">
      <rect width="24" height="24" id="rect13775" x="0" y="0"/>
    </clipPath>
  </defs>
  <circle vector-effect="non-scaling-stroke" cx="12" cy="9.0375166" fill="#FFFFFF" id="circle13689" style="isolation:isolate;stroke-width:0.051852" r="7"/>
  <circle vector-effect="non-scaling-stroke" cx="12" cy="9.0189352" fill="#FFFFFF" id="circle13691" style="isolation:isolate;stroke-width:0.051852" r="6.5074077"/>
  <g clip-path="url(#_clipPath_E9rXdIHY3dkNHvZGWkIDJ3F3emxd4i5R)" id="g13782" style="isolation:isolate" transform="matrix(0.58665022,0,0,0.57290629,4.7070258,1.9147365)">
    <path d="m 11.421,15.814 c -1.054,0 -2.148,-0.232 -3.118,-0.697 C 8.114,14.988 8.078,14.911 8.078,14.73 v -0.947 c 0,-0.173 0.059,-0.344 0.379,-0.344 0.171,0 0.284,0.091 0.527,0.266 0.973,0.679 1.9,0.955 2.684,0.955 1.322,0 2.22,-0.8 2.22,-1.791 0.01,-2.589 -5.9,-1.797 -5.9,-5.617 0,-1.768 1.362,-3.314 3.879,-3.314 1.252,0 2.388,0.24 3.028,0.49 0.173,0.078 0.206,0.166 0.206,0.341 v 1.097 c 0,0.168 -0.051,0.3 -0.258,0.3 -0.168,0 -0.302,-0.104 -0.511,-0.259 C 13.576,5.365 12.853,5.03 11.906,5.03 c -1.058,0 -1.89,0.568 -1.89,1.445 0,2.169 5.996,1.936 5.996,5.421 0,2.633 -2.194,3.871 -4.594,3.871 m 69.616,-0.549" fill="#FFFFFF" id="path13780"/>
  </g>
  <text style="font-style:normal;font-weight:400;font-size:2.59259px;font-family:Sarala;isolation:isolate;fill: #FFFFFF;stroke:none;stroke-width:0.051852" id="text13695" x="8.6738129" y="13.645541">Local</text>
</svg>

<?xml version="1.0" encoding="UTF-8" standalone="no"?><!-- Generator: Gravit.io --><svg xmlns="http://www.w3.org/2000/svg" xmlns:xlink="http://www.w3.org/1999/xlink" style="isolation:isolate" viewBox="0 0 24 24" width="24pt" height="24pt"><defs><clipPath id="_clipPath_E9rXdIHY3dkNHvZGWkIDJ3F3emxd4i5R"><rect width="24" height="24"/></clipPath></defs><g clip-path="url(#_clipPath_E9rXdIHY3dkNHvZGWkIDJ3F3emxd4i5R)"><path d=" M 11.421 15.814 C 10.367 15.814 9.273 15.582 8.303 15.117 C 8.114 14.988 8.078 14.911 8.078 14.73 L 8.078 13.783 C 8.078 13.61 8.137 13.439 8.457 13.439 C 8.628 13.439 8.741 13.53 8.984 13.705 C 9.957 14.384 10.884 14.66 11.668 14.66 C 12.99 14.66 13.888 13.86 13.888 12.869 C 13.898 10.28 7.988 11.072 7.988 7.252 C 7.988 5.484 9.35 3.938 11.867 3.938 C 13.119 3.938 14.255 4.178 14.895 4.428 C 15.068 4.506 15.101 4.594 15.101 4.769 L 15.101 5.866 C 15.101 6.034 15.05 6.166 14.843 6.166 C 14.675 6.166 14.541 6.062 14.332 5.907 C 13.576 5.365 12.853 5.03 11.906 5.03 C 10.848 5.03 10.016 5.598 10.016 6.475 C 10.016 8.644 16.012 8.411 16.012 11.896 C 16.012 14.529 13.818 15.767 11.418 15.767 M 81.034 15.218" fill="#FFFFFF"/></g></svg>
